openmetadata-ui/src/main/resources/ui/src/assets/svg/closed-lock.svg

<svg width="24" height="24" viewBox="0 0 24 24" fill="none" xmlns="http://www.w3.org/2000/svg">
<path d="M18.0714 8.57143V5.75143C18.0692 4.22675 17.4625 2.76517 16.3844 1.68706C15.3063 0.608948 13.8447 0.00226718 12.32 0H11.8229C10.2982 0.00226718 8.8366 0.608948 7.75849 1.68706C6.68038 2.76517 6.0737 4.22675 6.07143 5.75143V8.57143C5.38944 8.57143 4.73539 8.84235 4.25315 9.32458C3.77092 9.80682 3.5 10.4609 3.5 11.1429V19.1143C3.50227 20.4094 4.01774 21.6507 4.9335 22.5665C5.84925 23.4823 7.09064 23.9977 8.38571 24H15.7571C17.0522 23.9977 18.2936 23.4823 19.2094 22.5665C20.1251 21.6507 20.6406 20.4094 20.6429 19.1143V11.1429C20.6429 10.4609 20.3719 9.80682 19.8897 9.32458C19.4075 8.84235 18.7534 8.57143 18.0714 8.57143ZM7.78571 5.75143C7.78571 4.68071 8.21105 3.65385 8.96817 2.89674C9.72528 2.13963 10.7521 1.71429 11.8229 1.71429H12.32C13.3907 1.71429 14.4176 2.13963 15.1747 2.89674C15.9318 3.65385 16.3571 4.68071 16.3571 5.75143V8.57143H7.78571V5.75143ZM18.9286 19.1143C18.9286 19.9554 18.5944 20.7621 17.9997 21.3568C17.4049 21.9516 16.5983 22.2857 15.7571 22.2857H8.38571C7.5446 22.2857 6.73793 21.9516 6.14318 21.3568C5.54842 20.7621 5.21429 19.9554 5.21429 19.1143V11.1429C5.21429 10.9155 5.30459 10.6975 5.46534 10.5368C5.62608 10.376 5.8441 10.2857 6.07143 10.2857H18.0714C18.2988 10.2857 18.5168 10.376 18.6775 10.5368C18.8383 10.6975 18.9286 10.9155 18.9286 11.1429V19.1143Z" fill="#37352F"/>
<path d="M12.9289 16.0446V18.856C12.9289 19.0834 12.8385 19.3014 12.6778 19.4621C12.5171 19.6229 12.299 19.7132 12.0717 19.7132C11.8444 19.7132 11.6264 19.6229 11.4656 19.4621C11.3049 19.3014 11.2146 19.0834 11.2146 18.856V16.0446C10.8878 15.8559 10.6323 15.5647 10.4879 15.216C10.3435 14.8674 10.3182 14.4808 10.4158 14.1163C10.5135 13.7518 10.7287 13.4297 11.0281 13.2C11.3275 12.9702 11.6943 12.8457 12.0717 12.8457C12.4491 12.8457 12.8159 12.9702 13.1153 13.2C13.4147 13.4297 13.6299 13.7518 13.7276 14.1163C13.8253 14.4808 13.7999 14.8674 13.6555 15.216C13.5111 15.5647 13.2557 15.8559 12.9289 16.0446Z" fill="#37352F"/>
</svg>

<svg xmlns="http://www.w3.org/2000/svg" width="24" height="24" fill="none"><path fill="#37352F" d="M18.071 8.571v-2.82A5.76 5.76 0 0 0 12.32 0h-.497A5.76 5.76 0 0 0 6.07 5.751v2.82A2.571 2.571 0 0 0 3.5 11.143v7.971A4.894 4.894 0 0 0 8.386 24h7.371a4.894 4.894 0 0 0 4.886-4.886v-7.971A2.572 2.572 0 0 0 18.07 8.57ZM7.786 5.751a4.037 4.037 0 0 1 4.037-4.037h.497a4.037 4.037 0 0 1 4.037 4.037v2.82H7.786v-2.82Zm11.143 13.363a3.172 3.172 0 0 1-3.172 3.172H8.386a3.171 3.171 0 0 1-3.172-3.172v-7.971a.857.857 0 0 1 .857-.857h12a.857.857 0 0 1 .858.857v7.971Z"/><path fill="#37352F" d="M12.929 16.045v2.811a.857.857 0 0 1-1.714 0v-2.811a1.714 1.714 0 1 1 1.714 0Z"/></svg>
